icons/mini/radio.svg

<svg width="20" height="20" viewBox="0 0 20 20" fill="none" xmlns="http://www.w3.org/2000/svg">
<path fill-rule="evenodd" clip-rule="evenodd" d="M17.4497 3.47318C17.849 3.36303 18.0834 2.95004 17.9732 2.55074C17.8631 2.15144 17.4501 1.91704 17.0508 2.02719L5.31247 5.26535C4.47281 5.36094 3.64077 5.4819 2.81717 5.62745C1.74546 5.81685 1 6.75598 1 7.81626V15.7502C1 16.9929 2.00736 18.0002 3.25 18.0002H16.75C17.9926 18.0002 19 16.9929 19 15.7502V7.81626C19 6.75598 18.2545 5.81685 17.1828 5.62745C15.417 5.31538 13.6124 5.11637 11.777 5.03807L17.4497 3.47318ZM16 9.50024C16 10.3287 15.3284 11.0002 14.5 11.0002C13.6716 11.0002 13 10.3287 13 9.50024C13 8.67182 13.6716 8.00024 14.5 8.00024C15.3284 8.00024 16 8.67182 16 9.50024ZM14.5 16.0002C15.3284 16.0002 16 15.3287 16 14.5002C16 13.6718 15.3284 13.0002 14.5 13.0002C13.6716 13.0002 13 13.6718 13 14.5002C13 15.3287 13.6716 16.0002 14.5 16.0002ZM5.24023 11.0002C5.24023 10.586 5.57602 10.2502 5.99023 10.2502H6.00023C6.41445 10.2502 6.75023 10.586 6.75023 11.0002V11.0102C6.75023 11.4245 6.41445 11.7602 6.00023 11.7602H5.99023C5.57602 11.7602 5.24023 11.4245 5.24023 11.0102V11.0002ZM7.99023 10.2502C7.57602 10.2502 7.24023 10.586 7.24023 11.0002V11.0102C7.24023 11.4245 7.57602 11.7602 7.99023 11.7602H8.00023C8.41445 11.7602 8.75023 11.4245 8.75023 11.0102V11.0002C8.75023 10.586 8.41445 10.2502 8.00023 10.2502H7.99023ZM6.24023 8.75024C6.24023 8.33603 6.57602 8.00024 6.99023 8.00024H7.00023C7.41445 8.00024 7.75023 8.33603 7.75023 8.75024V8.76024C7.75023 9.17446 7.41445 9.51024 7.00023 9.51024H6.99023C6.57602 9.51024 6.24023 9.17446 6.24023 8.76024V8.75024ZM9.8233 9.16973C9.53041 8.87684 9.05553 8.87684 8.76264 9.16973L8.75557 9.17681C8.46267 9.4697 8.46267 9.94457 8.75557 10.2375L8.76264 10.2445C9.05553 10.5374 9.53041 10.5374 9.8233 10.2445L9.83037 10.2375C10.1233 9.94457 10.1233 9.4697 9.83037 9.17681L9.8233 9.16973ZM10.25 11.2502C10.6642 11.2502 11 11.586 11 12.0002V12.0102C11 12.4245 10.6642 12.7602 10.25 12.7602H10.24C9.82579 12.7602 9.49 12.4245 9.49 12.0102V12.0002C9.49 11.586 9.82579 11.2502 10.24 11.2502H10.25ZM9.83051 14.8337C10.1234 14.5408 10.1234 14.0659 9.83051 13.773L9.82344 13.7659C9.53055 13.4731 9.05567 13.4731 8.76278 13.7659L8.75571 13.773C8.46281 14.0659 8.46281 14.5408 8.75571 14.8337L8.76278 14.8407C9.05567 15.1336 9.53055 15.1336 9.82344 14.8407L9.83051 14.8337ZM6.24023 15.2502C6.24023 14.836 6.57602 14.5002 6.99023 14.5002H7.00023C7.41445 14.5002 7.75023 14.836 7.75023 15.2502V15.2602C7.75023 15.6745 7.41445 16.0102 7.00023 16.0102H6.99023C6.57602 16.0102 6.24023 15.6745 6.24023 15.2602V15.2502ZM5.22711 13.7659C4.93421 13.473 4.45934 13.473 4.16645 13.7659L4.15938 13.773C3.86648 14.0659 3.86648 14.5408 4.15938 14.8337L4.16645 14.8407C4.45934 15.1336 4.93421 15.1336 5.22711 14.8407L5.23418 14.8337C5.52707 14.5408 5.52707 14.0659 5.23418 13.773L5.22711 13.7659ZM3.75 11.2502C4.16421 11.2502 4.5 11.586 4.5 12.0002V12.0102C4.5 12.4245 4.16421 12.7602 3.75 12.7602H3.74C3.32579 12.7602 2.99 12.4245 2.99 12.0102V12.0002C2.99 11.586 3.32579 11.2502 3.74 11.2502H3.75ZM5.23432 10.2375C5.52721 9.94459 5.52721 9.46972 5.23432 9.17682L5.22725 9.16975C4.93435 8.87686 4.45948 8.87686 4.16659 9.16975L4.15952 9.17682C3.86662 9.46972 3.86662 9.94459 4.15952 10.2375L4.16659 10.2446C4.45948 10.5374 4.93435 10.5374 5.22725 10.2446L5.23432 10.2375ZM7.24023 13.0002C7.24023 12.586 7.57602 12.2502 7.99023 12.2502H8.00023C8.41445 12.2502 8.75023 12.586 8.75023 13.0002V13.0102C8.75023 13.4245 8.41445 13.7602 8.00023 13.7602H7.99023C7.57602 13.7602 7.24023 13.4245 7.24023 13.0102V13.0002ZM5.99023 12.2502C5.57602 12.2502 5.24023 12.586 5.24023 13.0002V13.0102C5.24023 13.4245 5.57602 13.7602 5.99023 13.7602H6.00023C6.41445 13.7602 6.75023 13.4245 6.75023 13.0102V13.0002C6.75023 12.586 6.41445 12.2502 6.00023 12.2502H5.99023Z" fill="#0F172A"/>
</svg>

<svg xmlns="http://www.w3.org/2000/svg" viewBox="0 0 20 20" fill="currentColor" aria-hidden="true">
  <path fill-rule="evenodd" d="M17.45 3.473a.75.75 0 10-.4-1.446L5.313 5.265c-.84.096-1.671.217-2.495.362A2.212 2.212 0 001 7.817v7.933A2.25 2.25 0 003.25 18h13.5A2.25 2.25 0 0019 15.75V7.816c0-1.06-.745-2-1.817-2.189a41.124 41.124 0 00-5.406-.589l5.673-1.565zM16 9.5a1.5 1.5 0 11-3 0 1.5 1.5 0 013 0zM14.5 16a1.5 1.5 0 100-3 1.5 1.5 0 000 3zm-9.26-5a.75.75 0 01.75-.75H6a.75.75 0 01.75.75v.01a.75.75 0 01-.75.75h-.01a.75.75 0 01-.75-.75V11zm2.75-.75a.75.75 0 00-.75.75v.01c0 .415.336.75.75.75H8a.75.75 0 00.75-.75V11a.75.75 0 00-.75-.75h-.01zm-1.75-1.5A.75.75 0 016.99 8H7a.75.75 0 01.75.75v.01a.75.75 0 01-.75.75h-.01a.75.75 0 01-.75-.75v-.01zm3.583.42a.75.75 0 00-1.06 0l-.007.007a.75.75 0 000 1.06l.007.008a.75.75 0 001.06 0l.007-.007a.75.75 0 000-1.061l-.007-.007zm.427 2.08A.75.75 0 0111 12v.01a.75.75 0 01-.75.75h-.01a.75.75 0 01-.75-.75V12a.75.75 0 01.75-.75h.01zm-.42 3.584a.75.75 0 000-1.061l-.007-.007a.75.75 0 00-1.06 0l-.007.007a.75.75 0 000 1.06l.007.008a.75.75 0 001.06 0l.008-.007zm-3.59.416a.75.75 0 01.75-.75H7a.75.75 0 01.75.75v.01a.75.75 0 01-.75.75h-.01a.75.75 0 01-.75-.75v-.01zm-1.013-1.484a.75.75 0 00-1.06 0l-.008.007a.75.75 0 000 1.06l.007.008a.75.75 0 001.061 0l.007-.007a.75.75 0 000-1.061l-.007-.007zM3.75 11.25a.75.75 0 01.75.75v.01a.75.75 0 01-.75.75h-.01a.75.75 0 01-.75-.75V12a.75.75 0 01.75-.75h.01zm1.484-1.012a.75.75 0 000-1.061l-.007-.007a.75.75 0 00-1.06 0l-.007.007a.75.75 0 000 1.06l.007.008a.75.75 0 001.06 0l.007-.007zM7.24 13a.75.75 0 01.75-.75H8a.75.75 0 01.75.75v.01a.75.75 0 01-.75.75h-.01a.75.75 0 01-.75-.75V13zm-1.25-.75a.75.75 0 00-.75.75v.01c0 .415.336.75.75.75H6a.75.75 0 00.75-.75V13a.75.75 0 00-.75-.75h-.01z" clip-rule="evenodd"/>
</svg>
